X: 67
T: Missa de septem doloribus / Agnus Dei
N: Derived from Rue1014e-Missa_de_septem_doloribus-Agnus.krn
C: Pierre de la Rue
%%abc-version 2.0
%%abcx-abcm2ps-target-version 5.9.1 (29 Sep 2008)
%%abc-creator hum2abc beta
%%abcx-conversion-date 2019/02/17 08:01:12
%%abc-edited-by Jesse Rodin
%%abc-edited-by Chris Gage 05-23-2013
%%abcx-initial-encoding-date 2013/08/04/
%%humdrum-veritas 818985554
%%humdrum-veritas-data 4205731302
%%linebreak <none>
%%barnumbers 0
L: 1/4
M: 4/2
Q: 1/2=120
V: 1 clef=treble
V: 2 clef=treble-8
V: 3 clef=treble-8
V: 4 clef=treble-8
V: 5 clef=bass
K: C
[V:1] A8 | 
[V:2] d8 | 
[V:3] A8 | 
[V:4] z8 | 
[V:5] D,8 | 
[V:1] A4c4- | 
[V:2] f8 | 
[V:3] A4A4- | 
[V:4] z8 | 
[V:5] D,4A,,4- | 
[V:1] c4c4 | 
[V:2] e4c4 | 
[V:3] A4G4- | 
[V:4] z8 | 
[V:5] A,,4C,4 | 
[V:1] B4G4 | 
[V:2] d4B4 | 
[V:3] G4G4 | 
[V:4] z8 | 
[V:5] G,,8 | 
[V:1] A4F4 | 
[V:2] A4z4 | 
[V:3] F4D4 | 
[V:4] A8 | 
[V:5] D,8 | 
[V:1] E2A4GF | 
[V:2] A4A2A2 | 
[V:3] E8 | 
[V:4] c8 | 
[V:5] A,,8 | 
[V:1] G3ABcdB | 
[V:2] d4d4 | 
[V:3] D8 | 
[V:4] B4G4 | 
[V:5] B,,8 | 
[V:1] c2A4F2 | 
[V:2] c3BA4 | 
[V:3] E4C4 | 
[V:4] A4F4 | 
[V:5] A,,8 | 
[V:1] G2E4G2 | 
[V:2] G8- | 
[V:3] C8 | 
[V:4] E4z4 | 
[V:5] z2C,2C,2C,2- | 
[V:1] G2G4G2 | 
[V:2] G8 | 
[V:3] z8 | 
[V:4] E4E2E2 | 
[V:5] C,D,E,F,G,2E,2 | 
[V:1] F3EC2F2 | 
[V:2] z8 | 
[V:3] z8 | 
[V:4] A4A4 | 
[V:5] D,2D,2F,3E, | 
[V:1] E2D3^CC2 | 
[V:2] z4A4- | 
[V:3] z8 | 
[V:4] G3FE4 | 
[V:5] C,2D,2A,,4 | 
[V:1] D8 | 
[V:2] A2B2A2d2- | 
[V:3] F8 | 
[V:4] D8- | 
[V:5] z8 | 
[V:1] z4A4 | 
[V:2] d2cBA4 | 
[V:3] F4F4 | 
[V:4] D8 | 
[V:5] z4D,4 | 
[V:1] B2B4AG | 
[V:2] G3AB2c2- | 
[V:3] G8 | 
[V:4] z8 | 
[V:5] G,,2G,4F,E, | 
[V:1] A2F2E2c2- | 
[V:2] c2B2c4- | 
[V:3] F4G4 | 
[V:4] z4E4- | 
[V:5] D,4C,4 | 
[V:1] cBA4GF | 
[V:2] c4c4 | 
[V:3] A8 | 
[V:4] E2F2E2A2- | 
[V:5] A,,8 | 
[V:1] E4z2A2 | 
[V:2] c8 | 
[V:3] A8 | 
[V:4] A2GFE4 | 
[V:5] A,,4A,,4 | 
[V:1] F2G2A2_B2- | 
[V:2] d8- | 
[V:3] z8 | 
[V:4] D3EF2G2- | 
[V:5] _B,,2G,,2D,2G,,2 | 
[V:1] BAA2_B2d2- | 
[V:2] d8 | 
[V:3] z8 | 
[V:4] G2F2G4- | 
[V:5] D,4G,,4- | 
[V:1] dc_BAG4 | 
[V:2] z8 | 
[V:3] D8 | 
[V:4] G4G4 | 
[V:5] G,,4G,,4 | 
[V:1] z2G2G2G2 | 
[V:2] d4d2d2 | 
[V:3] D8 | 
[V:4] G8 | 
[V:5] _B,,8 | 
[V:1] c4c2A2- | 
[V:2] c3defe2- | 
[V:3] E8 | 
[V:4] A8- | 
[V:5] A,,8- | 
[V:1] A2A2ABcA | 
[V:2] e2d4c2 | 
[V:3] C2D2E4 | 
[V:4] A8 | 
[V:5] A,,8 | 
[V:1] B2A4^G2 | 
[V:2] dcBAB4 | 
[V:3] F4E4 | 
[V:4] z8 | 
[V:5] z8 | 
[V:1] A2E2F2E2- | 
[V:2] A8 | 
[V:3] C8 | 
[V:4] A4A2A2 | 
[V:5] A,,4A,,2A,,2 | 
[V:1] EFG2C2G2- | 
[V:2] z8 | 
[V:3] E8 | 
[V:4] G3ABcB2- | 
[V:5] C,3B,,A,,2G,,2- | 
[V:1] G2FED4 | 
[V:2] z8 | 
[V:3] D8 | 
[V:4] B2A4G2 | 
[V:5] G,,2A,,2B,,4 | 
[V:1] z2A2A2c2- | 
[V:2] A4A2A2 | 
[V:3] C8 | 
[V:4] AGFEF4 | 
[V:5] A,,8 | 
[V:1] cBG2A2B2- | 
[V:2] G3ABcB2- | 
[V:3] z2E2E2G2- | 
[V:4] E8 | 
[V:5] C,3B,,A,,2G,,2- | 
[V:1] B2c2d3B | 
[V:2] B2A3^G^G2 | 
[V:3] GFE4D2 | 
[V:4] z8 | 
[V:5] G,,2A,,2B,,4 | 
[V:1] c2A4^G2 | 
[V:2] A4B4 | 
[V:3] E8 | 
[V:4] z8 | 
[V:5] A,,4E,4 | 
[V:1] A4z2A2 | 
[V:2] A8- | 
[V:3] C8 | 
[V:4] E4E2E2 | 
[V:5] A,,8 | 
[V:1] A2FGA_BA2 | 
[V:2] A8- | 
[V:3] z8 | 
[V:4] D3EFGF2- | 
[V:5] z2D,2D,2D,2- | 
[V:1] D2A3GFE/D/ | 
[V:2] A8- | 
[V:3] z8 | 
[V:4] F2E3DD2 | 
[V:5] D,2C,2D,4 | 
[V:1] C2A,2C3D | 
[V:2] A8- | 
[V:3] C8- | 
[V:4] E4F4 | 
[V:5] A,,8- | 
[V:1] E8 ||  
[V:2] A8 ||  
[V:3] C8 ||  
[V:4] E8 ||  
[V:5] A,,8 ||  
[V:1]  [K:C] [K:clef=treble][M:2/1]z8 | 
[V:2]  [K:C] [K:clef=treble-8][M:2/1]d4d3e | 
[V:3]  [K:C] [K:clef=treble-8][M:2/1]D8- | 
[V:4]  [K:C] [K:clef=treble-8][M:2/1]z8 | 
[V:5]  [K:C] [K:clef=bass][M:2/1]z8 | 
[V:1] z8 | 
[V:2] f2d4cB | 
[V:3] D8 | 
[V:4] z8 | 
[V:5] D,4D,3E, | 
[V:1] z4A4 | 
[V:2] A4d4 | 
[V:3] A8 | 
[V:4] z8 | 
[V:5] F,2D,4C,B,, | 
[V:1] A3Bc2A2- | 
[V:2] c3de2f2 | 
[V:3] A8 | 
[V:4] z4A4 | 
[V:5] A,,8- | 
[V:1] A2GFE4- | 
[V:2] e4z4 | 
[V:3] c8- | 
[V:4] A3Bc2A2- | 
[V:5] A,,8- | 
[V:1] E4A4 | 
[V:2] z4e4 | 
[V:3] c8 | 
[V:4] A2GFE4- | 
[V:5] A,,8 | 
[V:1] G4E4 | 
[V:2] e4c4 | 
[V:3] c8 | 
[V:4] E4A4 | 
[V:5] z8 | 
[V:1] z2E2G4 | 
[V:2] d2e4dc | 
[V:3] B8- | 
[V:4] G4E4 | 
[V:5] z8 | 
[V:1] G3FD2E2 | 
[V:2] B2G2GABc | 
[V:3] B8 | 
[V:4] z2E2G3F | 
[V:5] z8 | 
[V:1] F2E3DD2 | 
[V:2] d2c2A3B | 
[V:3] A8- | 
[V:4] D2E2F4 | 
[V:5] z4D,4 | 
[V:1] E8 | 
[V:2] c2A2c3d | 
[V:3] A8 | 
[V:4] E8 | 
[V:5] C,4A,,4 | 
[V:1] z8 | 
[V:2] e4z2e2 | 
[V:3] A8 | 
[V:4] z4z2E2- | 
[V:5] z2A,,4C,2- | 
[V:1] z8 | 
[V:2] e2e2g4- | 
[V:3] G8- | 
[V:4] E2G4FE | 
[V:5] C,2B,,A,,G,,2A,,2 | 
[V:1] z4D4 | 
[V:2] g2fed4 | 
[V:3] G8 | 
[V:4] D2C2D4 | 
[V:5] B,,2C,2B,,4 | 
[V:1] A4A4 | 
[V:2] (3c2A2B2(3c2d2e2 | 
[V:3] A8 | 
[V:4] E8 | 
[V:5] A,,8 | 
[V:1] c4B2A2- | 
[V:2] c4d4 | 
[V:3] z4D4 | 
[V:4] z8 | 
[V:5] z8 | 
[V:1] AGFEF4 | 
[V:2] z4D4 | 
[V:3] A4A4 | 
[V:4] z8 | 
[V:5] z8 | 
[V:1] E4A4 | 
[V:2] A4ABcd | 
[V:3] c8- | 
[V:4] z4E4 | 
[V:5] z4A,,4 | 
[V:1] G4E3F | 
[V:2] e6dc | 
[V:3] c8 | 
[V:4] E4G4- | 
[V:5] C,6B,,A,, | 
[V:1] G2G3FED | 
[V:2] d2G2[G4d4] | 
[V:3] B8 | 
[V:4] G2FED2G2 | 
[V:5] G,,4G,,4 | 
[V:1] C3DE2F2- | 
[V:2] z8 | 
[V:3] A4A4- | 
[V:4] E2A2G2F2- | 
[V:5] A,,3B,,C,2D,2- | 
[V:1] FEDCD4 | 
[V:2] z8 | 
[V:3] A4G4 | 
[V:4] FEE4D2 | 
[V:5] D,C,B,,A,,B,,4 | 
[V:1] C3DEFE2- | 
[V:2] z8 | 
[V:3] A8- | 
[V:4] E4A3G | 
[V:5] A,,8- | 
[V:1] E2D3^CC2 | 
[V:2] z8 | 
[V:3] A8 | 
[V:4] F2EDE4 | 
[V:5] A,,8 | 
[V:1] D8 | 
[V:2] z4D4 | 
[V:3] z8 | 
[V:4] D8 | 
[V:5] z8 | 
[V:1] z8 | 
[V:2] A4c4- | 
[V:3] z8 | 
[V:4] z8 | 
[V:5] z4A,,4 | 
[V:1] z8 | 
[V:2] c2B4AG | 
[V:3] z8 | 
[V:4] z8 | 
[V:5] E,4G,4 | 
[V:1] z8 | 
[V:2] A2F2E4 | 
[V:3] z8 | 
[V:4] z8 | 
[V:5] F,2D,4^C,2 | 
[V:1] z8 | 
[V:2] z2D2A3B | 
[V:3] z8 | 
[V:4] z4z2D2 | 
[V:5] D,8 | 
[V:1] z8 | 
[V:2] cde4dc | 
[V:3] z8 | 
[V:4] A4c4 | 
[V:5] z2A,,2E,4 | 
[V:1] z8 | 
[V:2] d2B2c2f2- | 
[V:3] z8 | 
[V:4] B4A4- | 
[V:5] G,4F,2D,2 | 
[V:1] z8 | 
[V:2] fedcd4 | 
[V:3] z4D4 | 
[V:4] A4F2G2 | 
[V:5] D,C,A,,2_B,,4 | 
[V:1] z8 | 
[V:2] c8 | 
[V:3] A4c4 | 
[V:4] E2F2E2A2- | 
[V:5] A,,8 | 
[V:1] z2D2A3B | 
[V:2] z8 | 
[V:3] B4A2A2- | 
[V:4] A2G2F4 | 
[V:5] z8 | 
[V:1] c2B4A2- | 
[V:2] z8 | 
[V:3] A2G2A2GF | 
[V:4] E4z4 | 
[V:5] z8 | 
[V:1] A2G2A2F2 | 
[V:2] z8 | 
[V:3] E4z2D2 | 
[V:4] z8 | 
[V:5] z8 | 
[V:1] E4z2D2 | 
[V:2] z8 | 
[V:3] A3Bc2B2 | 
[V:4] z8 | 
[V:5] z8 | 
[V:1] A3Bc2c2- | 
[V:2] z8 | 
[V:3] A2A4GF | 
[V:4] z2D2A3B | 
[V:5] z8 | 
[V:1] c2BAG4 | 
[V:2] z8 | 
[V:3] E2F2G4 | 
[V:4] c4c2c2- | 
[V:5] A,,4E,3F, | 
[V:1] z2c3BG2 | 
[V:2] e8 | 
[V:3] C8 | 
[V:4] cBA2G4 | 
[V:5] G,2A,2E,4 | 
[V:1] A2c3BGA | 
[V:2] e4e4 | 
[V:3] z8 | 
[V:4] A3GEFG2- | 
[V:5] z2A,,2E,3F, | 
[V:1] B2A4^G2 | 
[V:2] e8 | 
[V:3] z8 | 
[V:4] G2c2B4 | 
[V:5] G,2A,2E,4 | 
[V:1] A8 | 
[V:2] c4d2e2- | 
[V:3] E4F2E2- | 
[V:4] A8- | 
[V:5] A,,8- | 
[V:1] z8 | 
[V:2] e2f4d2- | 
[V:3] E2A4G2 | 
[V:4] A4D4 | 
[V:5] A,,4B,,4 | 
[V:1] z4E4 | 
[V:2] d2^cB^c4 | 
[V:3] F2EDE4 | 
[V:4] A8- | 
[V:5] A,,8 | 
[V:1] F4F2F2- | 
[V:2] d4d2d2- | 
[V:3] D4D4 | 
[V:4] A8 | 
[V:5] z4D,4 | 
[V:1] F2EDE2F2 | 
[V:2] d2cBc2d2 | 
[V:3] A8- | 
[V:4] z8 | 
[V:5] D,4A,,3B,, | 
[V:1] E4A2A2- | 
[V:2] c4f2f2- | 
[V:3] A8- | 
[V:4] z8 | 
[V:5] C,4F,,4 | 
[V:1] A2G2F4 | 
[V:2] f2e2d2cB | 
[V:3] A8 | 
[V:4] z4D4 | 
[V:5] C,4D,4 | 
[V:1] E8 | 
[V:2] c8- | 
[V:3] z4A4 | 
[V:4] A2A4GF | 
[V:5] A,,4C,4- | 
[V:1] z4A4- | 
[V:2] c8 | 
[V:3] A4c4- | 
[V:4] E3DE4 | 
[V:5] C,2B,,2A,,2G,,2 | 
[V:1] A4c4- | 
[V:2] c8- | 
[V:3] c2B2A2G2 | 
[V:4] F2c4B2 | 
[V:5] F,,8- | 
[V:1] c2B2A2GF | 
[V:2] c8 | 
[V:3] F4A4- | 
[V:4] A2G2F2ED | 
[V:5] F,,8 | 
[V:1] E2F4E2 | 
[V:2] z4c4 | 
[V:3] A2F2G4 | 
[V:4] C2D2C4 | 
[V:5] z8 | 
[V:1] F4F2E2- | 
[V:2] c4A2c2- | 
[V:3] F4z4 | 
[V:4] z8 | 
[V:5] z8 | 
[V:1] E2DCD2E2 | 
[V:2] c2BAB2c2 | 
[V:3] z4G4- | 
[V:4] z4z2E2- | 
[V:5] z4z2C,2- | 
[V:1] C4z4 | 
[V:2] G4z4 | 
[V:3] G4G4 | 
[V:4] E2DCD2E2 | 
[V:5] C,2B,,A,,B,,2C,2 | 
[V:1] z8 | 
[V:2] z8 | 
[V:3] A4_B4 | 
[V:4] C2F4E2 | 
[V:5] F,,2A,,2G,,4 | 
[V:1] z2F4E2- | 
[V:2] z2c2F2c2- | 
[V:3] A8 | 
[V:4] F4z4 | 
[V:5] F,,4z4 | 
[V:1] E2DCD2E2 | 
[V:2] c2BAB2c2 | 
[V:3] z8 | 
[V:4] z4z2E2- | 
[V:5] z4z2C,2- | 
[V:1] C4G4 | 
[V:2] A2e2d2c2 | 
[V:3] z4G4 | 
[V:4] E2C2D2E2- | 
[V:5] C,2A,,2B,,2C,2- | 
[V:1] G4G4 | 
[V:2] e4z2e2 | 
[V:3] G4G4 | 
[V:4] E2DCD2E2 | 
[V:5] C,2B,,A,,B,,2C,2 | 
[V:1] A4c4- | 
[V:2] c2A3Bcd | 
[V:3] c8 | 
[V:4] F4F4 | 
[V:5] F,,3G,,A,,2F,,2 | 
[V:1] c2BAG4 | 
[V:2] e2f4e2 | 
[V:3] c8 | 
[V:4] G4F2G2 | 
[V:5] C,4C,4 | 
[V:1] F2A3Bc2 | 
[V:2] f4e4 | 
[V:3] A8 | 
[V:4] z2F3GA2 | 
[V:5] D,4A,,4 | 
[V:1] d4B4 | 
[V:2] d8 | 
[V:3] F4G4 | 
[V:4] D4D4 | 
[V:5] B,,4G,,4 | 
[V:1] c3BA2GF | 
[V:2] c3defe2- | 
[V:3] E8- | 
[V:4] z4A4- | 
[V:5] A,,8 | 
[V:1] E3DE4 | 
[V:2] ed^cB^c2d^c | 
[V:3] E8 | 
[V:4] A4A4 | 
[V:5] z4A,,4 | 
[V:1] z2D4G2- | 
[V:2] d8 | 
[V:3] z4D4 | 
[V:4] F4G4- | 
[V:5] _B,,4G,,4 | 
[V:1] G2E4A2- | 
[V:2] z8 | 
[V:3] E4C4 | 
[V:4] G4A4 | 
[V:5] C,4A,,4 | 
[V:1] A2G2F2ED | 
[V:2] d4d4 | 
[V:3] D8 | 
[V:4] F3DF2G2 | 
[V:5] _B,,8 | 
[V:1] C4F4 | 
[V:2] e2c4A2 | 
[V:3] A4A4 | 
[V:4] E2F3GA2 | 
[V:5] A,,4F,,4 | 
[V:1] E2D2D4- | 
[V:2] _B2G3A_BG | 
[V:3] G4F2D2- | 
[V:4] D8 | 
[V:5] G,,4_B,,4 | 
[V:1] D4^C4 | 
[V:2] A8 | 
[V:3] D2F2E4 | 
[V:4] z4E4 | 
[V:5] A,,8 | 
[V:1] D8- | 
[V:2] A4_B2G2- | 
[V:3] D8- | 
[V:4] F4D4- | 
[V:5] z2F,,2G,,2_B,,2- | 
[V:1] D8- | 
[V:2] G2F2G4 | 
[V:3] D8- | 
[V:4] D2C2_B,4 | 
[V:5] B,,2A,,2G,,4 | 
[V:1] D8- | 
[V:2] A6F2 | 
[V:3] D8- | 
[V:4] A,8- | 
[V:5] D,,8- | 
[V:1] D8 |]  
[V:2] F8 |]  
[V:3] D8 |]  
[V:4] A,8 |]  
[V:5] D,,8 |]  



